X:357
T:Lass o' Gowrie #2, The
C:Joe Buchanan's Scottish Tome - Page 169.1
I:169 1
Z:Carl Allison
R:March
L:1/4
M:4/4
K:D
A/G/ | "D"F A A "Am"(B/c/) | "D"d > e "D"d c | "G"B > B B d | "Em"e > f "A7"e (A/G/) |
"D"F A "A7"A (B/c/) | "D"d > e "D"f e | "G"d/c/B/A/ "D"d f | "A7"e2 "D"d :|
g | "D"f a d > e | "D"f/e/f/g/ "B7"a g/f/ | "Em"g b e > f | "Em"g/f/g/a/ "A7"b (a/g/) |
"D"f a e f | "Am"d >e f e | "G"d/c/B/A/ "D"d F | "Em"E2 "A7"D2 :|

